X: 7
M:9/8
L:1/8
K:D
f/2g/2af edc d2:|g|fdf gag fed|c2 A c/2d/2ee e2 g|fdf gag fed|
c2 A B/2c/2dd d2 g|f2 d f/2g/2ag fed|c2 A c/2d/2ee e2 g|
fdf afa bag|fed ABc d2||

